packages/sources/icons/src/vitamix/truck-fill.svg

<svg width="16" height="16" viewBox="0 0 16 16" fill="none" xmlns="http://www.w3.org/2000/svg">
<path d="M11.3333 5.33334H13.3333L15.3333 8.03734V12H13.9766C13.8974 12.5562 13.6201 13.0651 13.1957 13.4333C12.7714 13.8015 12.2284 14.0042 11.6666 14.0042C11.1048 14.0042 10.5619 13.8015 10.1375 13.4333C9.71315 13.0651 9.43588 12.5562 9.35663 12H5.97663C5.89737 12.5562 5.6201 13.0651 5.19574 13.4333C4.77139 13.8015 4.22844 14.0042 3.66663 14.0042C3.10481 14.0042 2.56186 13.8015 2.13751 13.4333C1.71315 13.0651 1.43588 12.5562 1.35663 12H0.666626V4.00001C0.666626 3.8232 0.736864 3.65363 0.861888 3.52861C0.986912 3.40358 1.15648 3.33334 1.33329 3.33334H10.6666C10.8434 3.33334 11.013 3.40358 11.138 3.52861C11.2631 3.65363 11.3333 3.8232 11.3333 4.00001V5.33334ZM11.3333 6.66668V8.66668H14V8.47668L12.6613 6.66668H11.3333Z" fill="#001018"/>
</svg>

<svg width="16" height="16" fill="none" xmlns="http://www.w3.org/2000/svg"><path d="M11.333 5.333h2l2 2.704V12h-1.356a2.333 2.333 0 0 1-4.62 0h-3.38a2.333 2.333 0 0 1-4.62 0h-.69V4a.667.667 0 0 1 .666-.667h9.334a.667.667 0 0 1 .666.667v1.333zm0 1.334v2H14v-.19l-1.339-1.81h-1.328z" fill="#001018"/></svg>
